!!!!SEGMENT: pl-wumfc--n68232--001-011_moniuszko-stanislaw--paria-wyciag-fortepianowy-akt-i-arja.krn
!!!cenid: 18xx:4141
!!!COM: Moniuszko, Stanisław
!!!COM-rismID: pe30008351
!!!CDT: 1819/05/05-1872/06/04
!!!CNT: Polish
!!!GTL: Paria – wyciąg fortepianowy
!!!OTL: Akt I. Arja
!!!OMV: 011
!!!PDT:
!!!AGN:
!!!YEC: Copyright 2022 Narodowy Instytut Fryderyka Chopina (https://polishscores.org)
!!!YEM: License CC-BY-4.0 (https://creativecommons.org/licenses/by/4.0)
!!!SMS-siglum: PL-Wumfc
!!!SMS-shelfmark: N68232
!!!SMS-shelfwork: 001-011 G
!!!SMS-variant:
!!!SMS-altvar:
!!!NIFC-rismSourceID: 1001171381
!!!NIFC-rismChildID: 1001171381
!!!NIFC-islandoraID: pl-wumfc:7210
!!!URL-pdf-islandora: https://repozytorium.nifc.pl/islandora/object/pl-wumfc%3A7210/datastream/PDF/view
!!!URL-scan: https://polish.musicsources.pl/pl/lokalizacje/galeria/druki-muzyczne/12634/1 @EN{Scan on Polish Music Sources Website} @PL{Skany w portalu Dziedzictwo Muzyki Polskiej w otwartym dostępie}
!!!IIIF:
!!!ONB-nifc: UWAGA: str. 41-43. Uwaga: proszę w pliku umieszczać obsadę, która występuje tylko w danej części.
!!!AIN: 1 bass 1 piano
!!!key: g
**kern	**kern	**dynam	**kern	**text	**text
*part2	*part2	*	*part1	*	*
*staff3	*staff2	*	*staff1	*	*
*	*IGacmp	*	*IGsolo	*	*
*	*ICklav	*	*ICvox	*	*
*	*Ipiano	*	*Ibass	*	*
*	*I"[Piano]	*	*I"A. A.	*	*
*	*I'	*	*I'A. A.	*	*
*clefF4	*clefG2	*	*clefF4	*	*
*k[b-e-]	*k[b-e-]	*	*k[b-e-]	*	*
*g:	*g:	*	*g:	*	*
*M4/4	*M4/4	*	*M4/4	*	*
*met(c)	*met(c)	*	*met(c)	*	*ij
=1	=1	=1	=1	=1	=1
!	!LO:TX:a:B:t=Moderato.:rj	!	!LO:TX:a:B:t=Moderato.:rj	!	!
8D 8DD/	8.r	p	4D\	nóg.	rò.
!LO:TX:a:t=Cor.:rj	!	!	!	!	!
16r	.	.	.	.	.
16D\KL	16d/KL	<	.	.	.
8.D\	8.d/	.	4r	.	.
16D\Jk	16d/Jk	.	.	.	.
8.D\L	8.d/L	.	2r	.	.
16D\Jk	16d/Jk	.	.	.	.
8D 8DD/	8dd 8cc 8f#X 8d/	[ ff	.	.	.
!LO:TUP:b	!	!	!	!	!
(24C/LL	8r	.	.	.	.
24BB-/	.	.	.	.	.
24AA/JJ	.	.	.	.	.
=2	=2	=2	=2	=2	=2
8GG/)	8gg 8dd 8b- 8g\	.	4r	.	.
8rAA	16r	.	.	.	.
!	!LO:TX:a:t=Q.	!	!	!	!
.	16dKL 16B-< 16G</	p	.	.	.
4rAA	8.d 8.B-< 8.G</	.	8.r	.	.
.	16dJk 16B-< 16G</	.	16G\	Jest	È
2rGG	8.dL 8.B-< 8.G</	.	8F#X\	je-	no-
.	.	.	8G\	-dno	-to un
.	16dK 16B-< 16G</	.	.	.	.
.	8.d 8.B-< 8.G</	.	8B-\	sło-	det-
.	.	.	8A\	-wo	-to a
.	16dJk 16B-< 16G</	.	.	.	.
!!linebreak:original
=3	=3	=3	=3	=3	=3
!LO:TX:b:t=Fag.:rj	!	!	!	!	!
2D 2BB-\	8.g\L 8.B-<\ 8.G</	.	4.G\	co	me,
.	16dK 16B-< 16G</	.	.	.	.
.	8.d 8.B-< 8.G</	.	.	.	.
.	.	.	8D\	tak	il
.	16dJk 16B-< 16G</	.	.	.	.
8.E-L 8.C\	8.cL 8.A< 8.G</	.	8.C/	wiel-	cui
16DK 16BB-\	16dK 16B-< 16G</	.	16D\	-ką	po-
8.C 8.AA\	8.e- 8.c 8.G</	.	8.E-\	wła-	-ter-
16E-Jk 16C\	16cJk 16A< 16G</	.	16C/	-dzę	-tal
=4	=4	=4	=4	=4	=4
4D 4BB-\	8.dL 8.B-< 8.G</	.	4D\	ma,	è,
.	16dK 16B-< 16G</	.	.	.	.
8.rBB	8.d 8.B-< 8.G</	.	8r	.	.
.	.	.	8GG/	Że	che
16D 16BB-\	16G</Jk	.	.	.	.
8.D\L	8.B-<L 8.G</	<	8BB-/	niem	qual
.	.	.	8D\	jak	fu-
16G\Jk	16dK 16B-/	.	.	.	.
4r	8.g 8.d 8.B-/	.	8G\	si-	-ror
.	.	.	8B-\	-łą	di
.	16b-Jk 16g 16d/	[	.	.	.
=5	=5	=5	=5	=5	=5
*^	*	*	*	*	*
4D 4DD/	4ryy	8.ddL 8.b- 8.g/	sf	2d^\	gro-	tuo-
.	.	16dK 16B-< 16G</	.	.	.	.
4rFF	4ryy	8.g 8.B-< 8.G</	.	.	.	.
.	.	16dJk 16B-< 16G</	.	.	.	.
4rFF	8.B-L 8.G/	[4d/	.	8BB-/	-mu	-no
.	.	.	.	16r	.	.
.	16B-Jk 16G/	.	.	16BB-/	u-	lo an-
4DD\	8.B-L 8.F#X/	8.d/L]	.	8.BB-/	-ko-	-nien-
.	16A/Jk	16c/Jk	.	16AA/	-rzę	-te-
*v	*v	*	*	*	*	*
!!linebreak:original
=6	=6	=6	=6	=6	=6
1GG\	8.B-<L 8.G</	.	4GG/	go,	-rà.
.	.	.	.	.	.
.	.	.	.	.	.
.	16d<Jk 16B-< 16G</	.	.	.	.
.	8.d<L 8.B-< 8.G</	.	8r	.	.
.	.	.	8G\	O-	Un
.	16gJk 16d 16B-/	.	.	.	.
.	8.f#XL 8.d 8.B-/	<	8F#X\	-fia-	sa-
.	.	.	8G\	-ra	-cri-
.	16gK 16d 16B-/	.	.	.	.
.	8.a 8.d 8.B-/	.	8A\	jest	-fi-
.	.	.	8B-\	co	-zio e-
.	16b-Jk 16d 16B-/	[	.	.	.
=7	=7	=7	=7	=7	=7
.	16qqB-/LL	.	.	.	.
.	16qqd/JJ	.	.	.	.
8.GL 8.D 8.BB- 8.GG\	4.b-\	sf	4.B-^\	świę-	-si-
16B-K 16G 16D\	.	.	.	.	.
8.B- 8.G 8.D\	.	.	.	.	.
.	8d 8B-/	.	8D\	-tej	-ge
16DJk 16BB- 16GG\	.	.	.	.	.
8.E-L 8.C 8.GG/	8.cL 8.A/	<	8C/L	na-	che
.	.	.	8D/J	.	al
16DK 16BB- 16GG/	16dK 16B-/	[	.	.	.
8.BB- 8.GG^/	8.f 8.d/	>	8.F\	-szej	no-
16CJk 16AA/	16e-Jk 16c/	]	16E-\	po-	-stro
=8	=8	=8	=8	=8	=8
(4C 4AA ([4GG^/	8.e-L 8.c/	.	4E-\	-wa-	tem-
.	16e-K 16c/	.	.	.	.
8.DL 8.BB- 8.GG/]))	8.d 8.B-/	.	8D\	-dze	-pio
.	.	.	8r	.	.
16BB-Jk 16GG/	16dJk 16B- 16G/	.	.	.	.
4C 4AA 4GG/	8.e-L 8.c 8.G/	.	4E-\	Do-	po-
.	16e-K 16c 16B-/	.	.	.	.
4C#X 4BB- 4GG-X/	8.en 8.c#X 8.B-/	.	8.En\	-da	-ter
.	16eJk 16c# 16B-/	.	16E\	świe-	e
!!linebreak:original
=9	=9	=9	=9	=9	=9
*	*^	*	*	*	*
2D 2BB- 2FF/	8.fL 8.d 8.B-/	2ryy	.	8F\L	-tno-	glo-
.	.	.	.	8G\J	.	.
.	16gK 16d 16B-/	.	.	.	.	.
.	8.a 8.d 8.B-/	.	.	8A\	-ści	-ria
.	.	.	.	8B-\	gdy	af-
.	16b-Jk 16d 16B-/	.	.	.	.	.
4C 4FF/	4en/	8.cL 8.G\	.	4.c\	speł-	-fer-
.	.	16cK 16G\	.	.	.	.
4FF/	4e-X/	8.c 8.A\	.	.	.	.
.	.	.	.	8An\	-nię	-me-
.	.	16cJk 16A\	.	.	.	.
*	*v	*v	*	*	*	*
=10	=10	=10	=10	=10	=10
[4BB-/	8.dL 8.B-/	p <	4B-\	ją	-rà.
.	16dK 16B-/	.	.	.	.
8BB-/]	8.f 8.d 8.B-/	.	8r	.	.
8r	.	.	8B-\	Przy-	Vi
.	16b-Jk 16f 16d/	[	.	.	.
8.dL 8.B-\	4..dd\	sf >	4.d^\	-się-	giu-
16dK 16B-\	.	.	.	.	.
8.d 8.B-\	.	.	.	.	.
.	.	.	8c\	-gam	-ro,
16dJk 16B-\	16cc\	]	.	.	.
=11	=11	=11	=11	=11	=11
8.dL 8.B-\	(4b-^\	.	4B-\	za-	pria
16dK 16B- 16F\	.	.	.	.	.
8.d 8.B- 8.F\	8.a/L)	.	8A\	-nim	che
.	.	.	8G\	prze-	ne
16dJk 16B- 16F\	16g/Jk	.	.	.	.
8.dL 8.B- 8.F\	(4f/	.	4F\	-ko-	por-
16dK 16B- 16F\	.	.	.	.	.
8.B- 8.F\	8.e-/L)	.	8E-\	-nam	-ga
.	.	.	8D\	na-	le
!	!	!LO:DY:b=2	!	!	!
16B-Jk 16F\	16d/Jk	p	.	.	.
!!pagebreak:original
=12	=12	=12	=12	=12	=12
8.FL 8.AA\	8.fL 8.e- 8.c/	.	4F\	-o-	pro-
16F\K	16fK 16e- 16c/	.	.	.	.
8.F\	8.f 8.e- 8.c/	.	8C/	-cznie,	-ve,
.	.	.	16r	.	.
16F\Jk	16fJk 16e- 16c/	.	16c\	Ze	che a
8.AL 8.F\	8.fL 8.e- 8.c^/	.	4.c\	dla	voi
16AK 16F\	16fK 16e- 16c/	.	.	.	.
8.A 8.F\	8.f 8.e- 8.c/	.	.	.	.
.	.	.	8B-\	was	son
16AJk 16F\	16gJk 16e- 16c/	.	.	.	.
=13	=13	=13	=13	=13	=13
1F 1FF	8.aL 8.e- 8.c/	.	4A\	szczę-	pron-
.	16aK 16e- 16c/	.	.	.	.
.	8.b- 8.e- 8.c/	.	8.G\	-ście	-to o-
.	16ccJk 16e- 16c/	.	16F\	po	-gni
.	8.gL 8.e- 8.c 8.B-/	.	(4G\	świę-	be-
.	16gK 16e- 16c 16B-/	.	.	.	.
.	8.a 8.e- 8.c/	.	8.F\)	.	-ne ad
.	16aJk 16e- 16c/	.	16C/	-cić	of-
=14	=14	=14	=14	=14	=14
4F 4BB-/	8.b-L 8.d/	.	4D\	chcę.	-frir.
.	16fK 16d 16B-/	.	.	.	.
4r	8.f 8.d 8.B-/	.	4r	.	.
.	16fJk 16d 16B-/	.	.	.	.
4..D 4..DD/	8.fL 8.d 8.A/	.	4D\	Lecz	Nes-
.	16fK 16d 16A/	.	.	.	.
!	!	!LO:HP:t=cre_scen_do:ext=ud:problem:dynamics with extension lines	!	!	!
.	8.f 8.d 8.A/	<	8.D\	niech	-sun
16D 16DD/	16fJk 16d 16A/	.	16D\	u	im-
!!linebreak:original
=15	=15	=15	=15	=15	=15
4..G 4..GG/	8.b-L 8.d 8.B-/	.	4G\	sły-	-pu-
.	16b-K 16d 16B-/	.	.	.	.
.	8.b- 8.d 8.B-/	.	8.G\	-szę	-ro
16G 16GG/	16b-Jk 16d 16B-/	.	16G\	przez	pen-
4..F 4..FF/	8.aL 8.d 8.A/	.	4F\	świę-	-sier
.	16aK 16d 16A/	.	.	.	.
.	8.a 8.d 8.A/	.	8.F\	-tą	non
16F 16FF/	16aJk 16d/	.	16F\	wy-	mi
=16	=16	=16	=16	=16	=16
4..B- 4..BB-\	8.ddL 8.f 8.d/	.	4..B-\	-ro-	muo-
.	16b-K 16f 16d/	.	.	.	.
.	8.f 8.d/	[	.	.	.
16B- 16BB-\	16fJk 16d/	.	16B-\	-cznię	-ve,
4..A 4..AA\	8.f#XL 8.e- 8.c/	.	4A\	czy	spo-
.	16f#K 16e- 16c/	.	.	.	.
.	8.f# 8.e- 8.c/	.	8.A\	mi-	-glio
16A 16AA\	16f#Jk 16e- 16c/	.	16A\	-łe	già
=17	=17	=17	=17	=17	=17
*^	*	*	*	*	*
8.G#X/L	1GG#	8.enL 8.d 8.Bn/	fp <	4d\	bo-	son
16G#/K	.	16eK 16d 16B/	.	.	.	.
8.G#/	.	8.e 8.d 8.B/	.	8D\	-gom	di
.	.	.	.	8D\	za-	ter-
16G#/Jk	.	16eJk 16d 16B/	.	.	.	.
8.G#/L	.	8.eL 8.d 8.B/	.	4F\	-mia-	-ren
16G#/K	.	16eK 16d 16B/	.	.	.	.
8.G#/	.	8.e 8.d 8.B/	.	4D\	-ry	de
16G#/Jk	.	16eJk 16d 16B/	[	.	.	.
*v	*v	*	*	*	*	*
*kcancel	*kcancel	*	*kcancel	*	*
!!linebreak:original
=18||	=18||	=18||	=18||	=18||	=18||
*k[f#]	*k[f#]	*	*k[f#]	*	*
*^	*	*	*	*	*
!	!	!LO:TX:a:B:t=46:rj	!	!	!	!
8.A/L	[1AA	8.f#L 8.d/	f	2AA/	me?	sir.
16A/K	.	16f#K 16d/	.	.	.	.
8.A/	.	8.b 8.f# 8.d^/	.	.	.	.
16A/Jk	.	16aJk 16f#/	.	.	.	.
8.A/L	.	8.eeL 8.a 8.f#^\	.	2r	.	.
16A/K	.	16ddK 16a 16f#\	.	.	.	.
8.A/	.	8.gg 8.dd 8.a^\	.	.	.	.
16A/Jk	.	16ff#Jk 16dd 16a\	.	.	.	.
*v	*v	*	*	*	*	*
=19	=19	=19	=19	=19	=19
8AL 8AA/]	8.ff#L 8.a/	.	2r	.	.
16r	.	.	.	.	.
16AAK 16AAA/	16eeK 16g/	.	.	.	.
8.AA 8.AAA/	8.cc#X 8.e/	.	.	.	.
16AAJk 16AAA/	16aJk 16c#X/	.	.	.	.
2AA 2AAA/	8.gL 8.c#/	.	4r	.	.
.	16eK 16c#/	.	.	.	.
.	8.c# 8.A/	.	4A\	Przy	Lo
.	16aJk 16A/	.	.	.	.
=20	=20	=20	=20	=20	=20
8DL 8DD/	8d/L	f	1d	się-	giu-
16r	16r	.	.	.	.
16DJk 16DD/	16ddJk 16d/	.	.	.	.
[4D [4DD/	[4dd [4d^/	.	.	.	.
8D]L 8DD/]	8dd]L 8d/]	.	.	.	.
16r	16r	.	.	.	.
16DJk 16DD/	16d/Jk	.	.	.	.
[4D [4DD/	[4d/	.	.	.	.
!!linebreak:original
=21	=21	=21	=21	=21	=21
8D] 8DD/]	8d/]	.	4D\	-gam!	-ro!
16r	16r	.	.	.	.
16F# 16D\	16d 16c/	f	.	.	.
8.F#L 8.D\	8.dL 8.c/	.	4r	.	.
16F#Jk 16D\	16dJk 16c/	.	.	.	.
8F# 8D\	8d 8c/	.	2r	.	.
8r	8r	.	.	.	.
8D 8DD/	8ff# 8dd 8cc 8a\	sf	.	.	.
(24C/LL	8r	.	.	.	.
24BB/	.	.	.	.	.
24AA/JJ	.	.	.	.	.
=22	=22	=22	=22	=22	=22
8GG/)	8gg 8dd 8b 8g\	sf	4r	.	.
16r	16r	.	.	.	.
16G 16GG/	16d 16B/	p	.	.	.
8.GL 8.GG/	8.gL 8.B/	.	8r	.	.
.	.	.	8G\	Gdy	Se a
16GJk 16GG/	16dJk 16B/	.	.	.	.
8.GL 8.GG/	8.dL 8.B/	.	8F#\L	bło-	noi
.	.	.	8G\J	.	.
16GK 16GG/	16dK 16B/	.	.	.	.
8.G 8.GG/	8.b 8.d/	.	8B\	-go	del-
.	.	.	8A\	nam	-l'o-
16GJk 16GG/	16dJk 16B/	.	.	.	.
=23	=23	=23	=23	=23	=23
8.DL 8.GG/	8.dL 8.B/	.	4G\	za-	-ra-
16GK 16GG/	16dK 16B/	.	.	.	.
8.G 8.GG/	8.g 8.B/	.	8.F#\	-brzmią	-col
16GJk 16GG/	16dJk 16B/	.	16E\	wy-	fa-
8.GL 8.GG/	8.dL 8.B/	.	4D\	-ra-	-ti-
16GK 16GG/	16dK 16B/	.	.	.	.
8.G 8.GG/	8.e 8.B/	.	8.C/	-zy	-di-
16GJk 16GG/	16dJk 16B/	.	16BB/	pro-	-co
!!pagebreak:original
=24	=24	=24	=24	=24	=24
8.DL 8.FF#\	8.dL 8.c 8.A/	.	4D\	-ro-	ver-
16AK 16F#\	16dK 16c/	.	.	.	.
!	!	!	!LO:TX:a:i:t=con anima	!	!
8.A 8.F#\	8.a 8.c/	.	8D\	-cze,	-bo
.	.	.	8A\	Jam	ac-
16AJk 16F#\	16dJk 16c/	.	.	.	.
8.AL 8.F#\	8.dL 8.c/	.	8G#X\	go-	-cet-
.	.	.	8A\	-tów	-to il
16AK 16F#\	16dK 16c/	.	.	.	.
8.A 8.F#\	8.a 8.c/	.	8B\	w me-	sa-
.	.	.	8c\	-go	-cri-
16AJk 16F#\	16dJk 16c/	.	.	.	.
=25	=25	=25	=25	=25	=25
8.AL 8.F# 8.D\	8.dL 8.c/	.	4d\	ży-	-fi-
16AK 16F# 16D\	16dK 16c/	.	.	.	.
8.A 8.F# 8.D\	8.a 8.c/	.	8A\	-cia	-zio
.	.	.	8c\	o-	pro-
16AJk 16F# 16D\	16dJk 16c/	.	.	.	.
8.AL 8.F# 8.D\	8.dL 8.c/	.	(4c\	-fia-	-mul-
16AK 16F# 16D\	16dK 16c/	.	.	.	.
8.A 8.F# 8.D\	8.d 8.c/	.	8B\)	.	.
.	.	.	8A#X\	-rę	-ghe-
16AJk 16F# 16D\	16dJk 16c/	.	.	.	.
=26	=26	=26	=26	=26	=26
*	*^	*	*	*	*
8.GL 8.GG\	8.dL 8.B/	2ryy	.	4B\	nieść,	-rà,
16G\K	16dK 16B/	.	.	.	.	.
!	!	!	!	!LO:TX:a:i:t=acceler. main sensi-bil-men-te:dur=4q3se:ext=ud:problem:text with extension lines	!	!
8G\	8g 8B/	.	.	8.r	.	.
16r	16r	.	.	.	.	.
!	!	!	!	!	!	!
16GJk 16GG\	16bJk 16g 16d/	.	.	16c\	Pro-	di
4..C 4..CC^/	4..cc^/	8.gL 8.e\	.	4..c\	-mie-	nuo-
.	.	16gK 16e\	.	.	.	.
.	.	8.g 8.e\	.	.	.	.
16GG/	16b/	16gJk 16d\	.	16B\	-niem	-va
!!linebreak:original
=27	=27	=27	=27	=27	=27	=27
*	*	*	*	*^	*	*
4..C 4..CC/	4..cc/	8.gL 8.e\	.	4..c\	2ryy	no-	glo-
.	.	16gK 16e\	.	.	.	.	.
.	.	8.g 8.e\	.	.	.	.	.
16GG/	16b/	16gJk 16d\	.	16B\	.	-wym	-ria
8.DL 8.DD/	8.bL 8.g/	2ryy	.	8B/L	8B\	oł-	ren-
.	.	.	.	8A/J	8A\	.	-de-
16D/K	16aK 16f#/	.	.	.	.	.	.
8.D/	8.g 8.e/	.	.	8.G\	4r	-tarz	-rò
16D/Jk	16aJk 16f#/	.	.	16A\	.	o-	su-
*	*	*	*	*v	*v	*	*
=28	=28	=28	=28	=28	=28	=28
8.GG\L	8.bL 8.g 8.d/	2ryy	.	4B\	-to-	-per-
16G\K	16bK 16g 16d/	.	.	.	.	.
8G\	8b 8g 8d/	.	.	8G\	-czę,	-bo,
16r	16r	.	.	16r	.	.
16GJk 16GG\	16bJk 16g 16d/	.	.	16B\	Pro-	di
4..D 4..DD^/	4..dd/	8.f#L 8.d\	.	4..d\	-mie-	nuo-
.	.	16aK 16f#\	.	.	.	.
.	.	8.a 8.f#\	.	.	.	.
16AA/	16cc#X/	16aJk 16e\	.	16c#X\	-niem	-va
=29	=29	=29	=29	=29	=29	=29
*	*	*	*	*^	*	*
4D 4DD/	4..dd/	8.aL 8.fn\	.	4..d\	2ryy	no-	glo-
.	.	16aK 16f\	.	.	.	.	.
4r	.	8.a 8.f\	.	.	.	.	.
.	16ccn/	16aJk 16f\	.	16cn\	.	-wym	-ria
8.EL 8.EE/	8.ccL 8.a 8.e/	2ryy	.	8c/L	8c\	oł-	ren-
.	.	.	.	8B/J	8B\	.	-de-
16E/K	16bK 16g#X 16e/	.	.	.	.	.	.
8.E/	8.a 8.f#X 8.e/	.	.	8A\	4ryy	-tarz	-rò
.	.	.	.	8B\	.	o	su-
16E/Jk	16bJk 16g# 16e/	.	.	.	.	.	.
*	*	*	*	*v	*v	*	*
!!linebreak:original
=30	=30	=30	=30	=30	=30	=30
4..A 4..AA\	(4dd/	8.g#XL 8.e\	.	4d\	to-	-per-
.	.	16g#K 16e\	.	.	.	.
.	8cc/L)	8a 8e\	.	8c\	-czę,	-bo
.	16r	16r	.	8c\	I	l'al-
16A 16AA\	16cc/Jk	16e\Jk	.	.	.	.
!	!	!	!LO:DY:rj	!	!	!
8F#L 8BB\	8bL 8d#X/	2ryy	pp	8.B\	wró-	-tar
16r	16r	.	.	.	.	.
16F#K 16BB\	16aK 16d#/	.	.	16A\	-cę	del-
8B 8BB\	8g# 8d#/	.	.	8.G\	je-	-l'im-
16r	16r	.	.	.	.	.
16AJk 16BB\	16f#Jk 16d#/	.	.	16F#\	-go	-mor-
*	*v	*v	*	*	*	*
=31	=31	=31	=31	=31	=31
*	*	*	*^	*	*
8EL 8C\	8aL 8e/	.	4A\	2ryy	słu-	-ta-
16r	16r	.	.	.	.	.
16EK 16C\	16eK 16A/	.	.	.	.	.
8E 8C\	8e 8A/	.	8.E\	.	-gom	-li,
16r	16r	.	.	.	.	.
16EJk 16C\	16bJk 16e/	.	16B\	.	wy-	su-
8AL 8C#X\	8aL 8e/	.	8.A/L	8.A\	-dar-	-per-
16r	16r	.	.	.	.	.
16AK 16C#\	16gK 16e/	.	16G/Jk	16G\	.	-ne
8A 8G 8C#\	8f#/	.	8F#\	4ryy	-tą	de-
16r	16r	.	8E\	.	im	-i-
16AJk 16G 16C#\	16e/Jk	.	.	.	.	.
*	*	*	*v	*v	*	*
=32	=32	=32	=32	=32	=32
8BL 8G 8D\	8g/L	.	4G\	cześć	-tà,
16r	16r	.	.	.	.
16BK 16G 16D\	16d/K	.	.	.	.
8B 8G 8D\	8d/	.	8r	.	.
16r	16r	.	8D\	i	l'al-
16DJk 16BB\	16G/Jk	.	.	.	.
8.GL 8.D\	8.B/L	<	8BB/	wró-	-tar
.	.	.	8D\	-cę	del-
16G\Jk	16dK 16B/	.	.	.	.
4r	8.g 8.d 8.B/	.	8G\	im	-l'im-
.	.	.	8B\	wy-	-mor-
.	16bJk 16g 16d/	[	.	.	.
!!linebreak:original
=33	=33	=33	=33	=33	=33
*^	*	*	*	*	*
8.D/L	1DD	8.ddL 8.b 8.d/	f >	4d\	-dar-	-ta-
16D/K	.	16dK 16B/	.	.	.	.
8.D/	.	8.g 8.d 8.B/	.	8G\	-tą	-li
.	.	.	.	8B\	wy-	di-
16D/Jk	.	16bJk 16g 16d/	.	.	.	.
8.D/L	.	8.aL 8.g 8.d/	] p	4..A\	-dar-	-vi-
16D/K	.	16gK 16d/	.	.	.	.
8.D/	.	8.f# 8.d/	.	.	.	.
16D/Jk	.	16aJk 16f# 16d/	.	16G\	-tą	-ni-
*v	*v	*	*	*	*	*
!	!LO:TX:a:B:t=47	!	!	!	!
=34	=34	=34	=34	=34	=34
4GG/	8g 8B/	.	8G\	cześć	-tà.
.	16r	.	8r	.	.
.	16gg 16b 16g\	p	.	.	.
8.r	8gg 8b 8g\	.	4B\	tak	Il
.	8r	.	.	.	.
16GG/	.	.	.	.	.
4C 4CC/	8.r	.	4..A\	wró-	sa-
.	16gg 16ee 16g\	.	.	.	.
8.r	8gg 8ee 8g\	.	.	.	.
.	8r	.	.	.	.
16BB 16BBB/	.	.	16G\	-cę	-cro al-
=35	=35	=35	=35	=35	=35
4E 4EE/	8.r	.	8G\	im	-tar,
.	.	.	8r	.	.
.	16gg 16ee 16g\	.	.	.	.
8.r	8gg 8ee 8g\	.	4B\	wy-	il
.	8r	.	.	.	.
16GG 16GGG/	.	.	.	.	.
4C 4CC/	8.r	.	4..A\	-dar-	sa-
.	16gg 16ee 16g\	.	.	.	.
8.r	8gg 8ee 8g\	.	.	.	.
.	8r	.	.	.	.
16BB 16BBB/	.	.	16G\	-tą	-cro al-
!!pagebreak:original
=36	=36	=36	=36	=36	=36
4E 4EE/	8.r	.	8G\	cześć,	tar
.	.	.	8r	.	.
.	16gg 16b 16g\	.	.	.	.
8.r	8gg 8b 8g\	.	4G\	tak	di
.	8r	.	.	.	.
16GG 16GGG/	.	.	.	.	.
4C 4CC/	8.r	.	4..F#\	wró-	nuo-
.	16aa 16gg 16ee 16a\	.	.	.	.
8.r	8aa 8gg 8ee 8a\	.	.	.	.
.	8r	.	.	.	.
16C#X 16CC#X/	.	.	16E\	-cę	-va
=37	=37	=37	=37	=37	=37
4D 4DD/	8.r	.	4D\	słu-	glo-
.	16bb 16gg 16b\	.	.	.	.
8.r	8bb 8gg 8b\	.	8G\	-gom	-ria
.	8r	.	8B\	wy-	a-
16D#X 16DD#X/	.	.	.	.	.
4E 4EE/	8.r	.	4..c\	-dar-	-dor-
.	16aa 16cc\	.	.	.	.
8.r	8aa 8cc\	.	.	.	.
.	8r	.	.	.	.
16F# 16FF#/	.	.	16A\	-tą	-ne-
=38	=38	=38	=38	=38	=38
4G 4GG/	8.r	.	8B\	cześć,	-rò.
.	.	.	8r	.	.
.	16gg 16b\	f	.	.	.
8.r	8gg 8b\	.	4B\	Tak!	Il
.	8r	.	.	.	.
16GG/	.	.	.	.	.
4..C 4..CC/	8.r	.	4..A\	wró-	sa-
.	16gg 16ee 16g\	.	.	.	.
.	8gg 8ee 8g\	.	.	.	.
.	8r	.	.	.	.
16BB 16BBB/	.	.	16G\	-cę	-cro al-
!!linebreak:original
=39	=39	=39	=39	=39	=39
4..C 4..CC/	8.r	.	8G\	im	-tar
.	.	.	8r	.	.
.	16gg 16ee 16g\	.	.	.	.
.	4gg 4ee 4g\	.	4B\	wy-	il
16BB 16BBB/	.	.	.	.	.
4..C 4..CC/	8.r	.	4..A\	-dar-	sa-
.	16gg 16ee 16g\	.	.	.	.
.	4gg 4ee 4g\	.	.	.	.
16BB 16BBB/	.	.	16G\	-tą	-cro al-
=40	=40	=40	=40	=40	=40
4..E 4..EE/	8.r	.	8G\	cześć,	-tar
.	.	.	8r	.	.
.	32bLLL 32g\	<	.	.	.
.	32gg\JJ	.	.	.	.
.	8.gg 8.b 8.g\	.	4G\	tak	del-
16BB 16BBB/	16ggJk 16b 16g\	.	.	.	.
8.CL 8.CC/	8.aaL 8.ee 8.a\	.	8A\	wró-	-le
.	.	.	8G\	-cę	nos-
16C/Jk	16aaJk 16ee 16a\	.	.	.	.
8.C#XL 8.CC#X/	8.aa#XL 8.gg 8.ee 8.a\	.	8F#\	je-	-tre im-
.	.	.	8G\	-go	-mor-
16C#/Jk	16aa#Jk 16gg 16ee 16a\	[	.	.	.
=41	=41	=41	=41	=41	=41
*	*^	*	*	*	*
8D 8DD/	8bb 8gg 8dd 8b\	2ryy	sf	4.d\	słu-	-ta-
8r	8r	.	.	.	.	.
4r	4r	.	.	.	.	.
.	.	.	.	16B\	-gom	-li
.	.	.	.	16G\	wy-	di-
2DD;/	(4f#;/	2d 2A\	fp	4.D;\	-dar-	-vi-
.	4a/)	.	.	.	.	.
.	.	.	.	8FF#/	-tą	-ni-
*	*v	*v	*	*	*	*
!!linebreak:original
=42	=42	=42	=42	=42	=42
8.GG\L	8.gL 8.d 8.B/	ff	2GG/	cześć.	-tà.
16G\K	16bK 16g 16d/	.	.	.	.
8.G\	8.b 8.g 8.d/	.	.	.	.
16GJk 16GG\	16dJk 16B/	.	.	.	.
8.F#L 8.GG\	8.dL 8.B/	.	2r	.	.
16G\K	16bK 16g 16d/	.	.	.	.
8.G\	8.b 8.g 8.d/	.	.	.	.
16E\Jk	16dJk 16B/	.	.	.	.
=43	=43	=43	=43	=43	=43
8.DL 8.GG\	8.dL 8.B/	.	1r	.	.
16G\K	16bK 16g 16d/	.	.	.	.
8.G\	8.b 8.g 8.d/	.	.	.	.
16D#X\Jk	16dJk 16B/	.	.	.	.
4..E 4..GG/	8.dL 8.c/	.	.	.	.
.	16aK 16d 16c/	.	.	.	.
.	8.a 8.d 8.c/	.	.	.	.
16F# 16GG/	16dJk 16c/	.	.	.	.
=44	=44	=44	=44	=44	=44
4..G 4..GG/	8.dL 8.B/	.	1r	.	.
.	16dJk 16B/	p	.	.	.
.	[4d [4B/	.	.	.	.
16G 16GG/	.	.	.	.	.
4..Fn 4..GG/	8.d]L 8.B/]	.	.	.	.
.	16dJk 16B/	.	.	.	.
.	[4d [4B/	.	.	.	.
16E-X 16GG/	.	.	.	.	.
!!linebreak:original
=45	=45	=45	=45	=45	=45
*^	*	*	*	*	*
4..D 4..GG/	2ryy	8.d]L 8.B/]	.	1ryy	.	.
.	.	16dK 16B/	.	.	.	.
.	.	8.g 8.B/	.	.	.	.
16D 16GG/	.	16G/Jk	.	.	.	.
2E-X^/	8.GG\L	2A 2F#X/	.	.	.	.
.	16GG\K	.	.	.	.	.
.	8.GG\	.	.	.	.	.
.	16GG\Jk	.	.	.	.	.
*v	*v	*	*	*	*	*
=46	=46	=46	=46	=46	=46
(<4D 4BB 4GG/	&(4G/	pp	1ryy	.	.
4Fn 4C 4FFn/	4A/	.	.	.	.
4E 4EE\	4B 4G#X/	.	.	.	.
!LO:SIC:v:o=4AA 4FFF#\)	!	!	!	!	!
4AA 4AAA\)	4c 4A&) 4E</	.	.	.	.
=47	=47	=47	=47	=47	=47
*^	*	*	*	*	*
2GG 2EE-X 2CC^\	2ryy	2E-<X 2C<^/	.	1ryy	.	.
2C 2EEn\	4ryy	(4..F#<X/	.	.	.	.
.	(8.CC\	.	.	.	.	.
.	16GGG\)	16G</)	.	.	.	.
*v	*v	*	*	*	*	*
=48	=48	=48	=48	=48	=48
1FF#X 1FFF#X;<	1A< 1E-<X 1C<;	.	1ryy	.	.
!!pagebreak:original
==49	==49	==49	==49	==49	==49
*k[b-e-a-d-]	*k[b-e-a-d-]	*	*k[b-e-a-d-]	*	*
*M4/4	*M4/4	*	*M4/4	*	*
*met(c)	*met(c)	*	*met(c)	*	*
1ryy	1ryy	.	1ryy	.	.
==	==	==	==	==	==
*-	*-	*-	*-	*-	*-
!!!system-decoration: s1{(s2,s3)}
!!!RDF**kern: > = above
!!!RDF**kern: < = below
!!!ENC: Andrzej Gręziak
!!!END: 2022-08-29
!!!ENC: Krzysztof Stępień
!!!END: 2022-10-27
